X:68
T:A La Pouncha D'Un Suquetou
R:Bourre
M:2/4
L:1/8
N:Recuillie et note par MM J.-B. Chse Lon Branchet et Johanns Plantadis
N:La Bourre 4th edition 1929, page 70
Z:Steve Mansfield www.lesession.co.uk May 2012
K:Gm
G B/ A/ | G A B c | d2 c d/ e/ | d d c B | 
A (A/B/) c B | A G (GF) | D4- | D z G F/ G/ | 
A B A G | F G A d | d c (BA) | G4 |]
<end>
<start>
